svg/baby_female_0609m_outline.svg

<?xml version="1.0" encoding="UTF-8" standalone="no"?>
<!-- Created with Inkscape (http://www.inkscape.org/) -->
<svg id="svg8" xmlns:rdf="http://www.w3.org/1999/02/22-rdf-syntax-ns#" xmlns="http://www.w3.org/2000/svg" xmlns:osb="http://www.openswatchbook.org/uri/2009/osb" height="48" width="48" version="1.1" xmlns:cc="http://creativecommons.org/ns#" viewBox="0 0 12.7 12.7" xmlns:dc="http://purl.org/dc/elements/1.1/">
 <title id="title4753">UIO-icon</title>
 <metadata id="metadata5">
  <rdf:RDF>
   <cc:Work rdf:about="">
    <dc:format>image/svg+xml</dc:format>
    <dc:type rdf:resource="http://purl.org/dc/dcmitype/StillImage"/>
    <dc:title>UIO-icon</dc:title>
    <dc:creator>
     <cc:Agent>
      <dc:title>Joaquín Urbano</dc:title>
     </cc:Agent>
    </dc:creator>
    <dc:rights>
     <cc:Agent>
      <dc:title>GPL</dc:title>
     </cc:Agent>
    </dc:rights>
   </cc:Work>
  </rdf:RDF>
 </metadata>
 <g id="layer1" transform="translate(0,-284.3)">
  <path id="circle5040" d="m20.648 3.998c-1.064 0.0469-2.223 0.456-2.939 1.4571-0.987 1.6688 0.073 2.5066 1.555 3.0215a14.273 12.398 0 0 0 -8.858 7.9394 4.1874 4.1874 0 0 0 -0.9099 -0.104 4.1874 4.1874 0 0 0 -4.1875 4.188 4.1874 4.1874 0 0 0 4.1875 4.188 4.1874 4.1874 0 0 0 1.1559 -0.165 14.273 12.398 0 0 0 13.342 8.034 14.273 12.398 0 0 0 8.111 -2.221 6.8534 6.8534 0 0 0 5.036 2.219 6.8534 6.8534 0 0 0 6.853 -6.854 6.8534 6.8534 0 0 0 -1.414 -4.156 4.1874 4.1874 0 0 0 0.137 -1.045 4.1874 4.1874 0 0 0 -4.188 -4.188 4.1874 4.1874 0 0 0 -0.929 0.11 14.273 12.398 0 0 0 -13.606 -8.6622 14.273 12.398 0 0 0 -1.072 0.039c-0.878-0.6466-4.992-0.4592-3.234-2.0508 1.541-1.2653 3.715-0.6413 0.863 0.795 4.322-0.9921 2.44-2.648 0.097-2.545zm3.676 4.2696c7.302 0.0037 12.095 5.1134 12.963 8.7774 1.806-0.626 4.841 0.345 4.906 3.486 0 0.172-0.016 0.34-0.043 0.504a6.8534 6.8534 0 0 0 -5.009 -2.187 6.8534 6.8534 0 0 0 -6.852 6.853 6.8534 6.8534 0 0 0 1.455 4.211c-2.304 1.434-4.905 2.246-7.094 2.123-6.984-0.004-12.131-3.644-13.705-8.119-2.115 0.728-4.71-0.2-5.1149-3.373 0.0699-2.363 2.5165-4.518 4.8729-3.461 1.636-4.755 6.364-8.807 13.621-8.8144zm-4.31 8.7444a1.5082 1.5082 0 0 0 -1.51 1.508 1.5082 1.5082 0 0 0 1.51 1.507 1.5082 1.5082 0 0 0 1.507 -1.507 1.5082 1.5082 0 0 0 -1.507 -1.508zm8 0a1.5082 1.5082 0 0 0 -1.51 1.508 1.5082 1.5082 0 0 0 1.51 1.507 1.5082 1.5082 0 0 0 1.507 -1.507 1.5082 1.5082 0 0 0 -1.507 -1.508zm9.127 2.271a6.4179 6.4179 0 0 1 4.886 2.268 6.4179 6.4179 0 0 1 0.006 0.006 6.4179 6.4179 0 0 1 0.344 0.445 6.4179 6.4179 0 0 1 1.184 3.699 6.4179 6.4179 0 0 1 -6.418 6.418 6.4179 6.4179 0 0 1 -4.663 -2.014 6.4179 6.4179 0 0 1 -0.025 -0.029 6.4179 6.4179 0 0 1 -0.34 -0.39l-0.002 0.002a6.4179 6.4179 0 0 1 -1.386 -3.987 6.4179 6.4179 0 0 1 6.414 -6.418zm2.033 1.697l-0.623 0.622 0.976 0.978-1.64 1.641c-0.666-0.489-1.465-0.754-2.264-0.754-2.042 0-3.728 1.643-3.728 3.685 0 2.086 1.686 3.729 3.728 3.729s3.727-1.642 3.727-3.729c0-0.843-0.312-1.687-0.844-2.353l1.644-1.598 0.932 0.932 0.621-0.621-0.932-0.932 0.799-0.844-0.621-0.621-0.799 0.797-0.976-0.932zm-20.008 2.665c-0.247 0.022-0.47 0.264-0.437 0.658 0.203 1.978 2.508 3.509 5.285 3.511 2.778 0 5.085-1.532 5.289-3.511-1.171 1.653-3.002 2.734-5.289 2.781-2.214-0.001-4.062-1.207-4.262-2.781-0.067-0.484-0.339-0.681-0.586-0.658zm16.457 0.666c1.554 0 2.84 1.286 2.84 2.839 0 1.598-1.286 2.885-2.84 2.885-1.553 0-2.842-1.287-2.842-2.885 0-1.553 1.289-2.839 2.842-2.839zm-27.756 10.785c-0.8281 0-1.4624 0.274-1.9043 0.824-0.4384 0.55-0.6582 1.357-0.6582 2.418v1.398c0.0104 1.02 0.2354 1.802 0.6738 2.348s1.0703 0.82 1.8985 0.82c0.8385 0 1.4752-0.279 1.9101-0.836 0.4349-0.556 0.6519-1.359 0.6519-2.41v-1.398c-0.01-1.02-0.233-1.801-0.6714-2.344-0.4384-0.546-1.0723-0.82-1.9004-0.82zm16.43 0c-0.828 0-1.463 0.274-1.904 0.824-0.439 0.55-0.659 1.357-0.659 2.418v1.398c0.011 1.02 0.236 1.802 0.674 2.348 0.439 0.546 1.072 0.82 1.901 0.82 0.838 0 1.475-0.279 1.91-0.836 0.435-0.556 0.652-1.359 0.652-2.41v-1.398c-0.01-1.02-0.235-1.801-0.674-2.344-0.438-0.546-1.072-0.82-1.9-0.82zm6.082 0c-0.487 0-0.927 0.116-1.317 0.349-0.389 0.23-0.694 0.553-0.914 0.971-0.215 0.414-0.322 0.87-0.322 1.367 0 0.783 0.202 1.407 0.606 1.869 0.403 0.46 0.941 0.69 1.613 0.69 0.525 0 0.984-0.194 1.377-0.58-0.108 1.172-0.817 1.788-2.129 1.847l-0.334 0.006v1.258l0.369-0.006c1.155-0.049 2.048-0.434 2.678-1.158s0.945-1.718 0.945-2.984v-0.559c-0.003-0.605-0.112-1.144-0.328-1.613-0.216-0.47-0.518-0.83-0.908-1.08-0.39-0.251-0.835-0.377-1.336-0.377zm-15.074 0.027c-0.769 0.004-1.447 0.179-2.032 0.527-0.581 0.345-1.026 0.832-1.339 1.465-0.31 0.63-0.465 1.357-0.465 2.182v0.543c0 0.929 0.245 1.672 0.736 2.228 0.494 0.557 1.141 0.836 1.941 0.836 0.495 0 0.935-0.111 1.325-0.334 0.393-0.222 0.696-0.533 0.908-0.933 0.216-0.4 0.324-0.848 0.324-1.342 0-0.773-0.194-1.396-0.584-1.869s-0.915-0.709-1.576-0.709c-0.616 0-1.126 0.204-1.529 0.615 0.083-0.612 0.332-1.091 0.746-1.436 0.417-0.344 0.966-0.52 1.648-0.531h0.147v-1.242h-0.25zm18.888 0.078v7.6h1.567v-2.078l-0.158-3.58 2.046 5.658h1.077l2.05-5.664-0.156 3.586v2.078h1.57v-7.6h-2.056l-1.942 5.512-1.951-5.512h-2.047zm-3.826 1.111c0.327 0 0.589 0.141 0.783 0.422 0.195 0.282 0.293 0.68 0.293 1.192v0.621c-0.09 0.177-0.225 0.328-0.402 0.453-0.174 0.125-0.383 0.188-0.627 0.188-0.344 0-0.611-0.133-0.803-0.397-0.188-0.268-0.283-0.609-0.283-1.023 0-0.418 0.098-0.763 0.293-1.038 0.195-0.278 0.443-0.418 0.746-0.418zm-22.5 0.006c0.3653 0 0.6322 0.143 0.8027 0.432 0.174 0.285 0.2617 0.743 0.2617 1.373v1.807c-0.0069 0.595-0.0923 1.037-0.2558 1.326-0.1636 0.289-0.43 0.432-0.7988 0.432-0.3724 0-0.644-0.149-0.8145-0.448-0.167-0.302-0.25-0.765-0.25-1.385v-1.847c0.0104-0.581 0.0986-1.006 0.2656-1.278 0.1705-0.274 0.4342-0.412 0.7891-0.412zm16.43 0c0.365 0 0.634 0.143 0.805 0.432 0.174 0.285 0.259 0.743 0.259 1.373v1.807c-0.007 0.595-0.09 1.037-0.254 1.326-0.163 0.289-0.43 0.432-0.798 0.432-0.373 0-0.644-0.149-0.815-0.448-0.167-0.302-0.25-0.765-0.25-1.385v-1.847c0.011-0.581 0.099-1.006 0.266-1.278 0.17-0.274 0.432-0.412 0.787-0.412zm-10.213 2.61c0.341 0 0.613 0.127 0.814 0.381 0.202 0.254 0.303 0.587 0.303 1.002 0 0.407-0.101 0.738-0.303 0.996-0.198 0.254-0.459 0.381-0.783 0.381-0.358 0-0.637-0.141-0.836-0.422-0.198-0.286-0.297-0.681-0.297-1.186v-0.459c0.094-0.209 0.24-0.375 0.438-0.5 0.198-0.129 0.42-0.193 0.664-0.193zm3.574 0.01v1.216h2.94v-1.216h-2.94z" fill-rule="evenodd" transform="matrix(.26458 0 0 .26458 0 284.3)" fill="#333"/>
 </g>
</svg>

<svg width="48" height="48" viewBox="0 0 48 48" fill="none" xmlns="http://www.w3.org/2000/svg">
<path fill-rule="evenodd" clip-rule="evenodd" d="M20.6478 3.99799C19.5838 4.04489 18.4248 4.45399 17.7088 5.45508C16.7218 7.12386 17.7818 7.96164 19.2638 8.47654C17.1808 9.11436 15.2966 10.1634 13.7596 11.541C12.2225 12.9187 11.0745 14.5874 10.4059 16.4158C10.1073 16.348 9.80218 16.3131 9.49599 16.3118C8.94604 16.3118 8.40148 16.4201 7.89339 16.6306C7.38531 16.8411 6.92366 17.1496 6.53481 17.5385C6.14596 17.9274 5.83753 18.389 5.62712 18.8972C5.41672 19.4053 5.30846 19.9498 5.30854 20.4998C5.30846 21.0497 5.41672 21.5943 5.62712 22.1024C5.83753 22.6105 6.14596 23.0722 6.53481 23.4611C6.92366 23.85 7.38531 24.1585 7.89339 24.369C8.40148 24.5794 8.94604 24.6877 9.49599 24.6877C9.8871 24.687 10.2762 24.6314 10.6519 24.5227C11.6727 26.8807 13.4963 28.9126 15.8798 30.3478C18.2633 31.7831 21.0935 32.5535 23.9937 32.5566C26.8943 32.5494 29.7236 31.7747 32.1046 30.3357C32.7451 31.0335 33.5233 31.5909 34.3901 31.9728C35.2568 32.3547 36.1934 32.5529 37.1405 32.5546C38.0405 32.5546 38.9317 32.3773 39.7632 32.0328C40.5947 31.6883 41.3502 31.1834 41.9865 30.547C42.6229 29.9105 43.1276 29.155 43.472 28.3235C43.8163 27.4919 43.9935 26.6007 43.9935 25.7007C43.9906 24.1978 43.4937 22.7376 42.5795 21.5448C42.669 21.2036 42.715 20.8525 42.7165 20.4998C42.7166 19.9498 42.6083 19.4052 42.3978 18.897C42.1874 18.3889 41.8789 17.9272 41.49 17.5383C41.1011 17.1494 40.6394 16.8409 40.1313 16.6305C39.6231 16.42 39.0785 16.3118 38.5285 16.3118C38.2157 16.3137 37.9041 16.3506 37.5995 16.4218C36.6856 13.9095 34.8739 11.7155 32.4275 10.158C29.981 8.60044 27.0269 7.76042 23.9937 7.75975C23.6359 7.76107 23.2784 7.77408 22.9217 7.79875C22.0437 7.15216 17.9298 7.33955 19.6878 5.74797C21.2287 4.48269 23.4027 5.10668 20.5508 6.54296C24.8727 5.55088 22.9907 3.895 20.6478 3.99799ZM24.3237 8.26754C31.6256 8.27124 36.4186 13.3809 37.2865 17.0448C39.0925 16.4188 42.1275 17.3898 42.1925 20.5308C42.1925 20.7028 42.1765 20.8708 42.1495 21.0348C41.5093 20.3461 40.7342 19.7966 39.8725 19.4204C39.0107 19.0441 38.0808 18.8492 37.1405 18.8478C35.3232 18.8482 33.5805 19.5703 32.2956 20.8555C31.0106 22.1406 30.2887 23.8834 30.2886 25.7007C30.2911 27.2272 30.8032 28.7092 31.7436 29.9117C29.4396 31.3457 26.8387 32.1576 24.6497 32.0346C17.6658 32.0306 12.5189 28.3907 10.9449 23.9157C8.8299 24.6437 6.23493 23.7157 5.83004 20.5428C5.89994 18.1798 8.34651 16.0248 10.7029 17.0818C12.3389 12.3269 17.0668 8.27494 24.3237 8.26754ZM20.0138 17.0118C19.8156 17.0116 19.6193 17.0504 19.4361 17.1261C19.2529 17.2018 19.0865 17.3128 18.9462 17.4529C18.806 17.5929 18.6947 17.7592 18.6188 17.9423C18.5429 18.1254 18.5038 18.3216 18.5038 18.5198C18.5039 18.7179 18.5431 18.9141 18.6191 19.097C18.6951 19.28 18.8064 19.4462 18.9466 19.5861C19.0868 19.7261 19.2532 19.837 19.4363 19.9126C19.6194 19.9882 19.8157 20.027 20.0138 20.0268C20.4133 20.0265 20.7965 19.8676 21.079 19.5851C21.3615 19.3025 21.5204 18.9194 21.5207 18.5198C21.5207 18.1201 21.3619 17.7367 21.0794 17.4539C20.7968 17.1712 20.4135 17.0121 20.0138 17.0118ZM28.0137 17.0118C27.8155 17.0116 27.6192 17.0504 27.436 17.1261C27.2528 17.2018 27.0864 17.3128 26.9461 17.4529C26.8059 17.5929 26.6946 17.7592 26.6187 17.9423C26.5428 18.1254 26.5037 18.3216 26.5037 18.5198C26.5038 18.7179 26.543 18.9141 26.619 19.097C26.695 19.28 26.8063 19.4462 26.9465 19.5861C27.0867 19.7261 27.2531 19.837 27.4362 19.9126C27.6193 19.9882 27.8156 20.027 28.0137 20.0268C28.4132 20.0265 28.7964 19.8676 29.0789 19.5851C29.3615 19.3025 29.5203 18.9194 29.5206 18.5198C29.5206 18.1201 29.3618 17.7367 29.0793 17.4539C28.7967 17.1712 28.4134 17.0121 28.0137 17.0118ZM37.1405 19.2828C38.0706 19.2842 38.9893 19.4878 39.833 19.8794C40.6766 20.271 41.4251 20.8413 42.0265 21.5508C42.0285 21.5528 42.0305 21.5548 42.0325 21.5568C42.1536 21.7 42.2684 21.8485 42.3765 22.0018C43.1437 23.0829 43.5573 24.375 43.5605 25.7007C43.5605 26.5435 43.3945 27.3781 43.072 28.1568C42.7494 28.9354 42.2767 29.6429 41.6807 30.2389C41.0848 30.8349 40.3773 31.3076 39.5986 31.6301C38.8199 31.9527 37.9854 32.1187 37.1425 32.1186C36.2692 32.1179 35.4051 31.9389 34.6034 31.5926C33.8016 31.2463 33.0789 30.74 32.4796 30.1047C32.4712 30.095 32.4629 30.0854 32.4546 30.0757C32.3361 29.9503 32.2227 29.8202 32.1146 29.6857L32.1126 29.6877C31.2143 28.553 30.7259 27.148 30.7266 25.7007C30.7266 23.9993 31.4022 22.3674 32.6049 21.164C33.8077 19.9605 35.4391 19.2838 37.1405 19.2828ZM39.1735 20.9798L38.5505 21.6018L39.5265 22.5798L37.8865 24.2207C37.2205 23.7317 36.4216 23.4667 35.6226 23.4667C33.5806 23.4667 31.8946 25.1097 31.8946 27.1517C31.8946 29.2377 33.5806 30.8807 35.6226 30.8807C37.6645 30.8807 39.3495 29.2387 39.3495 27.1517C39.3495 26.3087 39.0375 25.4647 38.5055 24.7987L40.1495 23.2008L41.0815 24.1327L41.7025 23.5117L40.7705 22.5798L41.5695 21.7358L40.9485 21.1148L40.1495 21.9118L39.1735 20.9798ZM19.1658 23.6447C18.9188 23.6667 18.6958 23.9087 18.7288 24.3027C18.9318 26.2807 21.2367 27.8117 24.0137 27.8137C26.7917 27.8137 29.0986 26.2817 29.3026 24.3027C28.1317 25.9557 26.3007 27.0367 24.0137 27.0837C21.7997 27.0827 19.9518 25.8767 19.7518 24.3027C19.6848 23.8187 19.4128 23.6217 19.1658 23.6447ZM35.6226 24.3107C37.1765 24.3107 38.4625 25.5967 38.4625 27.1497C38.4625 28.7477 37.1765 30.0347 35.6226 30.0347C34.0696 30.0347 32.7806 28.7477 32.7806 27.1497C32.7806 25.5967 34.0696 24.3107 35.6226 24.3107ZM7.86691 35.0956C7.03882 35.0956 6.40453 35.3696 5.96263 35.9196C5.52424 36.4696 5.30444 37.2766 5.30444 38.3376V39.7355C5.31484 40.7555 5.53984 41.5375 5.97823 42.0835C6.41663 42.6295 7.04852 42.9035 7.87671 42.9035C8.7152 42.9035 9.35189 42.6245 9.78679 42.0675C10.2217 41.5115 10.4387 40.7085 10.4387 39.6576V38.2596C10.4287 37.2396 10.2057 36.4586 9.76729 35.9156C9.32889 35.3696 8.695 35.0956 7.86691 35.0956ZM24.2967 35.0956C23.4687 35.0956 22.8337 35.3696 22.3927 35.9196C21.9537 36.4696 21.7337 37.2766 21.7337 38.3376V39.7355C21.7447 40.7555 21.9697 41.5375 22.4077 42.0835C22.8467 42.6295 23.4797 42.9035 24.3087 42.9035C25.1467 42.9035 25.7837 42.6245 26.2187 42.0675C26.6537 41.5115 26.8707 40.7085 26.8707 39.6576V38.2596C26.8607 37.2396 26.6357 36.4586 26.1967 35.9156C25.7587 35.3696 25.1247 35.0956 24.2967 35.0956ZM30.3786 35.0956C29.8916 35.0956 29.4516 35.2116 29.0616 35.4446C28.6727 35.6746 28.3677 35.9976 28.1477 36.4156C27.9327 36.8296 27.8257 37.2856 27.8257 37.7826C27.8257 38.5656 28.0277 39.1896 28.4317 39.6516C28.8346 40.1115 29.3726 40.3415 30.0446 40.3415C30.5696 40.3415 31.0286 40.1475 31.4216 39.7615C31.3136 40.9335 30.6046 41.5495 29.2926 41.6085L28.9586 41.6145V42.8725L29.3276 42.8665C30.4826 42.8175 31.3756 42.4325 32.0056 41.7085C32.6356 40.9845 32.9506 39.9905 32.9506 38.7246V38.1656C32.9476 37.5606 32.8386 37.0216 32.6226 36.5526C32.4066 36.0826 32.1046 35.7226 31.7146 35.4726C31.3246 35.2216 30.8796 35.0956 30.3786 35.0956ZM15.3048 35.1226C14.5358 35.1266 13.8578 35.3016 13.2728 35.6496C12.6919 35.9946 12.2469 36.4816 11.9339 37.1146C11.6239 37.7446 11.4689 38.4716 11.4689 39.2966V39.8395C11.4689 40.7685 11.7139 41.5115 12.2049 42.0675C12.6989 42.6245 13.3458 42.9035 14.1458 42.9035C14.6408 42.9035 15.0808 42.7925 15.4708 42.5695C15.8638 42.3475 16.1668 42.0365 16.3788 41.6365C16.5948 41.2365 16.7028 40.7885 16.7028 40.2945C16.7028 39.5216 16.5088 38.8986 16.1188 38.4256C15.7288 37.9526 15.2038 37.7166 14.5428 37.7166C13.9268 37.7166 13.4168 37.9206 13.0138 38.3316C13.0968 37.7196 13.3458 37.2406 13.7598 36.8956C14.1768 36.5516 14.7258 36.3756 15.4078 36.3646H15.5548V35.1226H15.3048ZM34.1926 35.2006V42.8005H35.7596V40.7225L35.6016 37.1426L37.6475 42.8005H38.7245L40.7745 37.1366L40.6185 40.7225V42.8005H42.1885V35.2006H40.1325L38.1905 40.7125L36.2396 35.2006H34.1926ZM30.3666 36.3116C30.6936 36.3116 30.9556 36.4526 31.1496 36.7336C31.3446 37.0156 31.4426 37.4136 31.4426 37.9256V38.5466C31.3526 38.7236 31.2176 38.8746 31.0406 38.9996C30.8666 39.1246 30.6576 39.1876 30.4136 39.1876C30.0696 39.1876 29.8026 39.0546 29.6106 38.7906C29.4226 38.5226 29.3276 38.1816 29.3276 37.7676C29.3276 37.3496 29.4256 37.0046 29.6206 36.7296C29.8156 36.4516 30.0636 36.3116 30.3666 36.3116ZM7.86691 36.3176C8.23221 36.3176 8.4991 36.4606 8.6696 36.7496C8.8436 37.0346 8.9313 37.4926 8.9313 38.1226V39.9295C8.9244 40.5245 8.839 40.9665 8.6755 41.2555C8.5119 41.5445 8.24551 41.6875 7.87671 41.6875C7.50432 41.6875 7.23272 41.5385 7.06222 41.2395C6.89522 40.9375 6.81222 40.4745 6.81222 39.8545V38.0076C6.82262 37.4266 6.91082 37.0016 7.07782 36.7296C7.24832 36.4556 7.51202 36.3176 7.86691 36.3176ZM24.2967 36.3176C24.6617 36.3176 24.9307 36.4606 25.1017 36.7496C25.2757 37.0346 25.3607 37.4926 25.3607 38.1226V39.9295C25.3537 40.5245 25.2707 40.9665 25.1067 41.2555C24.9437 41.5445 24.6767 41.6875 24.3087 41.6875C23.9357 41.6875 23.6647 41.5385 23.4937 41.2395C23.3267 40.9375 23.2437 40.4745 23.2437 39.8545V38.0076C23.2547 37.4266 23.3427 37.0016 23.5097 36.7296C23.6797 36.4556 23.9417 36.3176 24.2967 36.3176ZM14.0838 38.9276C14.4248 38.9276 14.6968 39.0546 14.8978 39.3086C15.0998 39.5625 15.2008 39.8955 15.2008 40.3105C15.2008 40.7175 15.0998 41.0485 14.8978 41.3065C14.6998 41.5605 14.4388 41.6875 14.1148 41.6875C13.7568 41.6875 13.4778 41.5465 13.2788 41.2655C13.0808 40.9795 12.9818 40.5845 12.9818 40.0795V39.6205C13.0758 39.4116 13.2218 39.2456 13.4198 39.1206C13.6178 38.9916 13.8398 38.9276 14.0838 38.9276ZM17.6578 38.9376V40.1535H20.5978V38.9376H17.6578Z" fill="#333333"/>
</svg>
